X:1
T:A minor Jacob French, 1802
T:Isaac Watts, 1706 Confession and Pardon    66. 86.  (S. M.)
T:Conviction
T:Transcribed from Harmony of Harmony, 1802
%%score [ 1 2 3 4 ]
L:1/8
Q:1/4=140
M:3/2
K:C
V:1 treble nm="Treble" snm="Tr."
V:2 treble nm="Counter" snm="C."
V:3 treble-8 nm="Tenor" snm="T."
V:4 bass nm="Bass" snm="B."
V:1
 E4 | A8 e4 | (d4 c4) B4 | c8 z4 |[M:2/2] e4 e2 c2 | (B2 d2 c2) A2 | B6 A2 | (c2 Ac B2) ^G2 | %8
w: 1.~A-|las, my|a- * ching|heart!|Here the keen|tor- * * ment|lies; It|racks * * * my|
 e4 (d2 c2) | (B2 A2 ^G2) A2 | B6 c2 | (d2 B2 c2) e2 | (d4 c4) | B8 | A8 |: %15
w: wa- king *|hours * * with|smart, and|frights~ _ _ my|slum- *|bering|eyes.|
"^Guilt   will   be   hid  no" z8 | z8 |"^more;" z4 e4 | e>d cB c2 d2 | e6 e2 | c2 c2 c2 e2 | %21
w: ||My|griefs * take * vent a-|pace; The|crimes that blot my|
 d4 d4 | e4 (d B3) | (e c3) (A c3) | (d2 c2) B4 | A8 :| %26
w: con- science|o'er Flush *|crim- * son *|in * my|face.|
V:2
 E4 | E8 (E2 G2) | F8 E4 | E8 z4 |[M:2/2] A4 A2 E2 | G4 A4 | G6 E2 | (G2 AG F2) E2 | G4 F4 | %9
w: 2.~My|sor- rows, *|like a|flood,|Im- pa- tient|of re-|straint, In-|to~ _ _ _ thy|bo- som,|
 E6 E2 | G6 G2 | (DFED E2) E2 | F8 | E8 | E8 |: z8 | z8 |"^mine" z4 A4 | G2 E2 E2 G2 | G6 G2 | %20
w: O my|God, Pour|out~ _ _ _ _ a|long|com-|plaint.|||Could|once de- fy the|Lord; Could|
 G2 G2 G2 G2 | G4 G4 | G4 G4 | G4 F4 | F4 E4 | E8 :| %26
w: rush with vio- lence|on to|sin In|pre- sence|of thy|sword.|
V:3
 A4 | c8 (c2 B2) | A8 ^G4 | A8 z4 |[M:2/2] c4 c2 c2 | (d2 B2 c2) d2 | e6 c2 | (e2 ce d2) B2 | %8
w: 3.~How|of- ten *|have I|stood|A re- bel|to~ _ _ the|skies, The|calls,~ _ _ _ the|
 (c2 B2) A4 | (G2 A2 B2) c2 | d6 e2 | (f2 gf e2) c2 | (B4 A4) | ^G8 | A8 |: %15
w: ten- * ders,|of~ _ _ a|God, And|mer- * * * cy's|lou- *|dest|cries.|
"^He       of –  fers  all  his""^This  im–pious heart of" z8 | z8 |"^grace," z4 c4 | %18
w: ||And|
 B2 ^G2 A2 B2 | c6 c2 | e2 e2 e2 c2 | (d2 B2) (3(G2 A2 B2) | c4 (B d3) | (c e3) (c A3) | %24
w: all his heav'n to|me; Of-|fers! But 'tis to|sense- * less * *|brass, That *|can- * not *|
 (B2 A2) ^G4 | A8 :| %26
w: feel * nor|see.|
V:4
 A,,4 | A,,8 C,4 | D,8 E,4 | A,,8 z4 |[M:2/2] A,4 A,2 A,2 | G,4 F,4 | E,6 A,2 | %7
w: 4.~Je-|sus, the|Sa- vior,|stands,|To court me|from a-|bove, And|
 (E,2 F,E, D,2) E,2 | C,4 D,4 | E,6 A,2 | G,6 C2 | (B,2 G,2 A,2) A,2 | D,8 | E,8 | A,,8 |: z4 A,4 | %16
w: looks,~ _ _ _ and|spreads his|woun- ded|hands, And|shows~ _ _ the|prints|of|love.|But|
 G,2 E,2 C,2 D,2 | E,4 A,4 | E,2 E,2 A,2 G,2 | C,6 C,2 | C,2 C,2 C,2 C,2 | G,4 G,4 | C,4 G,4 | %23
w: I, a stu- pid|fool, How|long have I with-|stood The|bles- sings pur- chased|with his|soul, And|
 C,4 F,4 | D,4 E,4 | %25
w: paid for|all in|
"^5. Lord, 'tis against Thy face\nMy sins like arrows rise,\nAnd yet, and yet (O matchless grace!)\nThy thunder silent lies.\nO shall I never feel\nThe meltings of Thy love! \nAm I of such hell-hardened steel\nThat mercy cannot move ?\n""^6. Now, for one powerful glance,\nDear Savior, from Thy face!\nThis rebel heart no more withstands,\nBut sinks beneath Thy grace.\nOvercome by dying love I fall;\nHere at Thy cross I lie:\nAnd throw my flesh, my soul, my all,\nAnd weep, and love, and die.\n" A,,8 :| %26
w: blood!|

